X:1
T:Donna incostante-Ingrata disleali
T:Giovanni Stefani
T:Source : Affetti amorosi-Canzonette ad una voce sola---Venetia---A.Vincenti---1621. Editor : André Vierendeels (03/11/15).
T:Notes : Original clefs : C2, C4 Alfabetto et intavolatura per la chitarra Spagnola Terza impressione (first print 1618)
T:Ingrata disleali- Donna incostante
T:Aria Siciliana
C:Giovanni Stefani
%%score 1 { ( 2 3 ) | 4 }
L:1/8
Q:1/4=120
M:4/4
K:F
V:1 treble nm="Soprano" snm="S"
V:2 treble nm="BC" snm="BC"
V:3 treble 
V:4 bass 
V:1
 z2 G2 G4- | G2 G2 G3 A | ^F4 F4 | G4- GA ^F2 | G8- | G8 | z4 A4- | A2 A2 A2 AA | A2 A2 G2 E2 | %9
w: In- gra-|* ta dis- le-|a- li'ed|in- * co- stan-|ti,|_|quant'|_ iu t'a- mu- lu|vi- di'a- per- ta|
w: Non tor-|* na no iu|tem- pu|ch'u'in- * da- van-|ti,|_|ne|_ le bel- iz- za|du- ra'e- ter- na|
 ^F4 F4 | z2 B2 B4- | B2 B2 B2 A2 | B4- BB_AG | _A4 A2 A2 | _A2 A2 A3 B | G6 G2 | G4- GA ^F2 | %17
w: men- ti,|e fin-|* gi di l'au-|ri _ chi di mir-|can- ti, qua-|si che non mi|vi- di'o|non _ mi sen-|
w: men- ti,|o- gni|_ ma- chin' au-|tis- * si- ma'im- por-|tar ti, si|dis- fa, si con-|su- ma'e-|tor- * na nen-|
 G8- | G8 | z4 A2 A2 | A6 GE | ^F4 F4 | G4- GA ^F2 | G8- | G8 |] %25
w: ti,|_|qua- si|che non mi|vi- di'o|non _ mi sen-|ti.|_|
w: ti,|_|si dis-|fa, si con-|su- ma'e|tor- * na nen-|ti.|_|
V:2
 B8 | B4 d4 | A4 A4 | G4 A4 | B8- | B8 | c8 | A4 A4 | c4 B2 c2 | d4 A4 | F8 | B8 | F8 | _A6 A2 | %14
 c4 _A4 | B8 | G6 A2 | G8- | G8 | F4 A4 | F4 G4 | A8 | B4 c2 A2 | =B8- | B8 |] %25
V:3
 D8 | D4 B,4 | D4 ^F4 | E4 D4 | D8- | D8 | A8 | F4 C4 | F4 G4 | ^F4 F4 | D8 | D8 | D8 | C6 F2 | %14
 F4 C4 | D8 | E6 D2 | B,8- | B,8 | C4 F4 | D4 G4 | D8 | G4 G2 D2 | D8- | D8 |] %25
V:4
 G,8 | G,8 | D,8 | C,4 D,4 | G,8- | G,8 | F,8 | F,8 | F,4 _E,2 C,2 | D,4 D,2 C,2 | B,,8 | B,,8 | %12
 B,,8 | F,4 F,4 | F,8 | G,8 | C,6 D,2 | G,,8- | G,,8 | F,8 | D,6 _E,C, | D,4 D,4 | _E,4 C,2 D,2 | %23
 G,,8- | G,,8 |] %25

